!!!COM: Richard Strauss
!!!CNT: Deutscher
!!!TXO: Deutsche 
!!!OTL: Das Geheimnis
!!!OPS: Opus 17
!!!ONM: No. 3
!!!LYR: A. F. von Schack
!!!ENC: Brian Bice
!!!YOR: Lieder, Complete Edition, vol. 1
!!!ODT: 1883/
!!NB: Vocal melody and text only encoded.
**kern	**silbe
*clefG2	*
*k[b-e-a-d-]	*
*M4/4	*
=2	=2
8r	.
{8b-	{Du
8b-	frag'st
8e-	mich,
8r	.
4ee-	Ma2d-
8e-	-chen,
=3	=3
12r	.
(12b-	was
12cc)	|
12dd-	flu2st-
12cc	-ernd
12b-	der
4.ee-}	West}
{8ee-	{ver-
=4	=4
(2.aa-	-tran-
8cc)	-e
8dd-	den
=5	=5
(12ff	Blu2-
12ee-)	|
12cc	-then-
8b-	-glo-
8a-}	-cken?}
4r	.
8r	.
{8cc	{Wa-
=6	=6
4.cc	-rum
8dd-	von
[4ee-	Zwei-
12ee-]	|
12cc	-ge
12dd-	zu
=7	=7
[4ee-	Zweig'
8ee-]	im
8ff	Ge-
4.gg-}	-a2st}
{8ee-	{die
=8	=8
12aa-	zwit-
12ff	-schern-
12ee-	-den
(2dd-	Vo2-
8ee-)	|
8ff	-gel
=9	=9
8b-	lo-
8a-}	-cken?}
4r	.
4r	.
{4a-	{Wa-
=10	=10
4.a-	-rum
8b-	an
4cc	Knos-
8a-	-pe
8b-	die
=11	=11
4cc	Knos-
8ddn	-pe
8een	sien
2ff}	schmiegt}
=12	=12
8r	.
{8dd-	{und
12b-	Wel-
12cc	-len
12dd-	mit
4ff	Wel-
8b-	-len
8cc	zer-
=13	=13
(4dd-	-flie-
4ddn	|
4ff)	|
4ee-}	-ssen,}
=14	=14
8r	.
{4ee-	{und
8ff-	dem
4gg-	Mond-
4g-	-strahl.
=15	=15
4cc-	der
8a-	auf
8a-	den
(8g-	Kel-
8gg-)	|
8ee-	-chen
8dd-	sich
=16	=16
4ee-}	wiegt,}
{8cc-	{die
8dd-	Vi-
[4ee-	-o-
12ee-]	|
12cc-	-len
12dd-	der
=17	=17
4ee-	Nacht
8ee-	sich
8ffn	er-
[2aa-	-schlie-
=18	=18
4aa-]	|
4gg-}	-ssen?}
2r	.
=21	=21
8r	.
{8gn	{O
12gn	tho2-
12a-	-rich-
12b-	-tes
4cc	Fra-
4ff	-gen!
=22	=22
8r	.
8bn	Wem
8cc	Wis-
8dd-	-sen
2ee-}	frommt,}
=23	=23
8r	.
{8ee-	{nicht
12aa-	kann
12gg	ihm
12ee-	die
4.cc	Ant
8b-	wort
=24	=24
8a-	feh-
8g}	-len;}
4r	.
4r	.
{4f##	{drum
=25	=25
[4g#	war-
12g#]	|
12an	-te,
12a#	mein
4bn	Kind,
8cc#	bis
8dd#	die
=26	=26
([4gg#	Lie-
12gg#]	|
12een)	|
12cc#	-be
4.en}	kommt,}
{8g#	{die
=27	=27
(12f#	wird
12g#)	|
12an	dir
2een	al-
8dd#	-les
8cc#	er-
=28	=28
(2.g#	-zu2h-
f#q	|
[4bn	|
=29	=29
4bn])	|
4en}	-len.}
2r	.
*-	*-
